; generated by PrusaSlicer 2.4.0+win64 on 2022-04-05 at 21:45:48 UTC


;
;

;
;
; 

; external perimeters extrusion width = 0.45mm
; perimeters extrusion width = 0.45mm
; infill extrusion width = 0.45mm
; solid infill extrusion width = 0.45mm
; top infill extrusion width = 0.40mm
; first layer extrusion width = 0.42mm

; external perimeters extrusion width = 0.45mm
; perimeters extrusion width = 0.45mm
; infill extrusion width = 0.45mm
; solid infill extrusion width = 0.45mm
; top infill extrusion width = 0.40mm
; first layer extrusion width = 0.42mm

; external perimeters extrusion width = 0.45mm
; perimeters extrusion width = 0.45mm
; infill extrusion width = 0.45mm
; solid infill extrusion width = 0.45mm
; top infill extrusion width = 0.40mm
; first layer extrusion width = 0.42mm

; external perimeters extrusion width = 0.45mm
; perimeters extrusion width = 0.45mm
; infill extrusion width = 0.45mm
; solid infill extrusion width = 0.45mm
; top infill extrusion width = 0.40mm
; first layer extrusion width = 0.42mm

; external perimeters extrusion width = 0.45mm
; perimeters extrusion width = 0.45mm
; infill extrusion width = 0.45mm
; solid infill extrusion width = 0.45mm
; top infill extrusion width = 0.40mm
; first layer extrusion width = 0.42mm

; external perimeters extrusion width = 0.45mm
; perimeters extrusion width = 0.45mm
; infill extrusion width = 0.45mm
; solid infill extrusion width = 0.45mm
; top infill extrusion width = 0.40mm
; first layer extrusion width = 0.42mm

M73 P0 R348
M201 X3000 Y2000 Z60 E10000 ; sets maximum accelerations, mm/sec^2
M203 X500 Y500 Z6 E60 ; sets maximum feedrates, mm/sec
M204 P1250 R1250 T1250 ; sets acceleration (P, T) and retract acceleration (R), mm/sec^2
M205 X10.00 Y10.00 Z0.40 E5.00 ; sets the jerk limits, mm/sec
M205 S0 T0 ; sets the minimum extruding and travel feed rate, mm/sec
M107
;TYPE:Custom
G90 ; use absolute coordinates
M83 ; extruder relative mode
M204 S1250 T1250
M104 S215 ; set extruder temp
M140 S65 ; set bed temp
G28 ; home all
G1 Y1.0 Z0.3 F1000 ; move print head up
M190 S65 ; wait for bed temp
M109 S215 ; wait for extruder temp
G92 E0.0
; initial load
G1 X205.0 E19 F1000
G1 Y1.6
M73 P0 R347
G1 X5.0 E19 F1000
G92 E0.0
; intro line
G1 Y2.0 Z0.2 F1000
G1 X65.0 E9.0 F1000
G1 X105.0 E12.5 F1000
G92 E0.0
G21 ; set units to millimeters
G90 ; use absolute coordinates
M83 ; use relative distances for extrusion
; Filament gcode
M107
;LAYER_CHANGE
;Z:0.2
;HEIGHT:0.2
;BEFORE_LAYER_CHANGE
G92 E0.0
;0.2
G1 E-6 F2400
G1 Z.075 F5400
G1 Z.2
;AFTER_LAYER_CHANGE
;0.2
G1 Z.275
G1 X62.408 Y77.599
G1 Z.2
G1 E6 F3000
M204 S800
;TYPE:Skirt/Brim
;WIDTH:0.42
G1 F600
G1 X63.009 Y77.162 E.02073
G1 X64.309 Y76.598 E.03956
G1 X132.65 Y62.913 E1.94492
G1 X133.633 Y62.759 E.02777
G1 X134.878 Y62.707 E.03479
G1 X136.2 Y62.824 E.03702
G1 X137.493 Y63.117 E.03702
G1 X138.736 Y63.58 E.03701
G1 X139.906 Y64.207 E.03702
G1 X140.98 Y64.984 E.03701
G1 X141.942 Y65.898 E.03702
G1 X142.772 Y66.933 E.03701
G1 X143.455 Y68.069 E.03701
G1 X144.006 Y69.361 E.03918
G1 X152.83 Y95.985 E.78271
G1 X153.082 Y96.948 E.02777
G1 X153.236 Y97.931 E.02777
G1 X153.277 Y99.462 E.04274
G1 X153.082 Y100.982 E.04274
G1 X146.062 Y131.783 E.88157
G1 X145.598 Y133.111 E.03924
G1 X144.992 Y134.291 E.03701
G1 X144.234 Y135.379 E.03702
G1 X143.151 Y136.527 E.04403
G1 X142.38 Y137.156 E.02777
G1 X141.55 Y137.704 E.02777
G1 X140.669 Y138.166 E.02777
G1 X139.745 Y138.537 E.02777
G1 X138.789 Y138.814 E.02777
G1 X137.81 Y138.992 E.02777
G1 X136.818 Y139.071 E.02777
G1 X135.744 Y139.044 E.02999
G1 X65.274 Y131.13 E1.97885
G1 X64.32 Y130.956 E.02707
G1 X63.529 Y130.65 E.02366
G1 X62.83 Y130.222 E.02287
G1 X62.249 Y129.722 E.02139
G1 X61.691 Y129.054 E.02429
G1 X61.33 Y128.463 E.01931
G1 X60.971 Y127.619 E.02561
G1 X60.806 Y127.009 E.01762
G1 X60.663 Y125.767 E.0349
G1 X60.694 Y81.276 E1.24154
G1 X60.843 Y80.144 E.03186
G1 X61.074 Y79.434 E.02081
G1 X61.424 Y78.747 E.02153
G1 X61.861 Y78.146 E.02073
G1 X62.365 Y77.641 E.01991
M204 S1000
; printing object Fan Shroud v3.stl id:0 copy 0
G1 E-3.6 F2400
;WIPE_START
G1 F4320
G1 X63.009 Y77.162 E-.4233
G1 X64.309 Y76.598 E-.74823
G1 X66.369 Y76.186 E-1.10848
;WIPE_END
G1 E-.12 F2400
G1 Z.275 F5400
G1 X108.607 Y102.126
G1 Z.2
G1 E6 F3000
M204 S800
;TYPE:Perimeter
G1 F600
G1 X108.604 Y106.312 E.11682
G1 X108.527 Y106.636 E.00928
G1 X108.32 Y107.067 E.01336
G1 X108.128 Y107.312 E.00869
G1 X107.926 Y107.497 E.00763
G1 X107.729 Y107.634 E.0067
G1 X90.158 Y117.777 E.56615
G1 X89.809 Y117.904 E.01038
G1 X89.385 Y117.904 E.01181
G1 X88.986 Y117.759 E.01185
G1 X88.662 Y117.486 E.01183
G1 X88.449 Y117.119 E.01184
G1 X88.386 Y116.754 E.01035
G1 X88.386 Y112.894 E.10771
G1 X88.403 Y112.64 E.00709
M73 P0 R346
G1 X88.465 Y112.371 E.00772
G1 X88.565 Y112.117 E.00762
G1 X88.703 Y111.878 E.00769
G1 X88.875 Y111.661 E.00773
G1 X89.077 Y111.477 E.00762
G1 X89.282 Y111.335 E.00697
G1 X106.867 Y101.187 E.56655
G1 X107.203 Y101.067 E.00995
G1 X107.624 Y101.071 E.01175
G1 X108.014 Y101.213 E.01159
G1 X108.308 Y101.456 E.01065
G1 X108.478 Y101.694 E.00817
G1 X108.602 Y102.066 E.01093
M204 S1000
G1 X108.141 Y101.87 F5400
M204 S800
;TYPE:External perimeter
G1 F600
G1 X108.228 Y102.117 E.0073
G1 X108.241 Y102.262 E.00408
G1 X108.227 Y106.267 E.11176
G1 X108.17 Y106.509 E.00693
G1 X107.998 Y106.867 E.01106
G1 X107.85 Y107.055 E.00668
G1 X107.69 Y107.202 E.00607
G1 X107.527 Y107.315 E.00554
G1 X89.998 Y117.434 E.56479
G1 X89.742 Y117.527 E.0076
G1 X89.452 Y117.527 E.00811
G1 X89.178 Y117.428 E.00813
G1 X88.955 Y117.24 E.00812
G1 X88.809 Y116.988 E.00813
G1 X88.763 Y116.721 E.00757
G1 X88.763 Y112.907 E.10644
G1 X88.777 Y112.696 E.0059
G1 X88.826 Y112.483 E.00611
G1 X88.906 Y112.281 E.00606
G1 X89.015 Y112.091 E.00612
G1 X89.152 Y111.919 E.00611
G1 X89.312 Y111.773 E.00608
G1 X89.484 Y111.654 E.00583
G1 X107.025 Y101.531 E.56516
G1 X107.266 Y101.445 E.00714
G1 X107.556 Y101.447 E.00808
G1 X107.824 Y101.545 E.00797
G1 X108.03 Y101.715 E.00745
G1 X108.106 Y101.821 E.00365
M204 S1000
G1 X108.402 Y101.88 F5400
G1 E-3.6 F2400
;WIPE_START
G1 F4320
G1 X108.228 Y102.117 E-.16876
G1 X108.241 Y102.262 E-.07714
G1 X108.228 Y106.116 E-2.0341
;WIPE_END
G1 E-.12 F2400
G1 Z.275 F5400
G1 X108.218 Y109.126
G1 Z.2
G1 E6 F3000
M204 S800
;TYPE:Perimeter
G1 F600
G1 X108.464 Y109.416 E.01061
G1 X108.609 Y109.816 E.01189
G1 X108.613 Y112.231 E.06737
G1 X108.572 Y112.62 E.01092
G1 X108.505 Y112.917 E.00851
G1 X108.37 Y113.294 E.01117
G1 X108.027 Y114.003 E.02198
G1 X107.428 Y115.099 E.03486
G1 X107.251 Y115.368 E.00896
G1 X106.959 Y115.704 E.01245
G1 X106.592 Y116.027 E.01363
G1 X106.322 Y116.202 E.00897
G1 X90.159 Y125.533 E.5208
G1 X89.812 Y125.661 E.01033
G1 X89.384 Y125.662 E.01193
G1 X88.981 Y125.513 E.012
G1 X88.656 Y125.236 E.0119
G1 X88.45 Y124.876 E.01158
G1 X88.386 Y124.518 E.01014
G1 X88.386 Y120.65 E.10795
G1 X88.403 Y120.398 E.00706
G1 X88.465 Y120.129 E.0077
G1 X88.565 Y119.873 E.00767
G1 X88.703 Y119.636 E.00765
G1 X88.874 Y119.419 E.0077
G1 X89.077 Y119.232 E.0077
G1 X89.283 Y119.091 E.00698
G1 X106.826 Y108.963 E.56525
G1 X107.024 Y108.872 E.00609
G1 X107.386 Y108.809 E.01027
G1 X107.82 Y108.877 E.01225
G1 X108.175 Y109.085 E.01148
M204 S1000
G1 X107.692 Y109.238 F5400
M204 S800
;TYPE:External perimeter
G1 F600
G1 X107.945 Y109.387 E.00819
G1 X108.132 Y109.608 E.00809
G1 X108.232 Y109.883 E.00816
G1 X108.236 Y112.211 E.06497
G1 X108.199 Y112.558 E.00975
G1 X108.142 Y112.812 E.00726
G1 X108.022 Y113.148 E.00996
G1 X107.691 Y113.83 E.02115
G1 X107.104 Y114.905 E.03417
G1 X106.95 Y115.139 E.00782
G1 X106.691 Y115.438 E.01104
G1 X106.363 Y115.725 E.01216
G1 X106.125 Y115.881 E.00793
G1 X89.999 Y125.191 E.51962
G1 X89.744 Y125.284 E.00757
G1 X89.451 Y125.285 E.00817
G1 X89.174 Y125.182 E.00824
G1 X88.951 Y124.992 E.0082
G1 X88.81 Y124.745 E.00792
G1 X88.763 Y124.485 E.00739
G1 X88.763 Y120.663 E.10664
G1 X88.777 Y120.453 E.00587
G1 X88.826 Y120.24 E.0061
G1 X88.906 Y120.037 E.00609
G1 X89.015 Y119.848 E.00609
G1 X89.151 Y119.676 E.00611
G1 X89.312 Y119.528 E.00612
G1 X89.484 Y119.41 E.00582
G1 X106.999 Y109.298 E.56436
G1 X107.137 Y109.235 E.00422
G1 X107.389 Y109.191 E.00716
G1 X107.632 Y109.229 E.00686
M204 S1000
G1 X107.917 Y109.051 F5400
G1 E-3.6 F2400
;WIPE_START
G1 F4320
G1 X107.945 Y109.387 E-.18469
G1 X108.132 Y109.608 E-.15309
G1 X108.232 Y109.883 E-.1543
G1 X108.236 Y112.211 E-1.22872
G1 X108.199 Y112.558 E-.18434
G1 X108.142 Y112.812 E-.13733
G1 X108.022 Y113.148 E-.18835
G1 X107.981 Y113.232 E-.04918
;WIPE_END
G1 E-.12 F2400
G1 Z.275 F5400
G1 X109.367 Y121.226
G1 Z.2
G1 E6 F3000
M204 S800
;TYPE:Perimeter
G1 F600
G1 X109.833 Y121.3 E.01317
G1 X110.557 Y121.668 E.02266
G1 X111.131 Y122.243 E.02268
G1 X111.5 Y122.966 E.02266
G1 X111.627 Y123.769 E.02267
G1 X111.5 Y124.571 E.02267
G1 X111.131 Y125.295 E.02266
G1 X110.557 Y125.87 E.02268
G1 X109.833 Y126.238 E.02265
G1 X109.031 Y126.366 E.02269
G1 X108.228 Y126.238 E.02269
G1 X107.505 Y125.87 E.02265
G1 X106.93 Y125.295 E.02268
G1 X106.562 Y124.571 E.02266
G1 X106.435 Y123.769 E.02267
G1 X106.562 Y122.966 E.02267
G1 X106.93 Y122.243 E.02266
G1 X107.507 Y121.666 E.02276
G1 X108.252 Y121.296 E.02321
G1 X109.031 Y121.173 E.022
G1 X109.307 Y121.217 E.00782
M204 S1000
G1 X109.031 Y121.555 F5400
M204 S800
;TYPE:External perimeter
G1 F600
G1 X109.715 Y121.663 E.01934
G1 X110.332 Y121.977 E.01933
G1 X110.822 Y122.467 E.01934
G1 X111.136 Y123.084 E.01933
G1 X111.245 Y123.769 E.01934
G1 X111.136 Y124.453 E.01934
G1 X110.822 Y125.071 E.01932
G1 X110.332 Y125.561 E.01934
G1 X109.715 Y125.875 E.01932
G1 X109.031 Y125.984 E.01935
G1 X108.346 Y125.875 E.01935
G1 X107.729 Y125.561 E.01932
G1 X107.239 Y125.071 E.01934
G1 X106.925 Y124.453 E.01933
G1 X106.816 Y123.769 E.01934
G1 X106.925 Y123.084 E.01934
G1 X107.239 Y122.467 E.01933
G1 X107.73 Y121.976 E.01937
G1 X108.368 Y121.66 E.01988
G1 X108.971 Y121.564 E.01705
M204 S1000
G1 X109.231 Y121.208 F5400
G1 E-3.6 F2400
;WIPE_START
G1 F4320
G1 X109.715 Y121.663 E-.39602
G1 X110.332 Y121.977 E-.3655
G1 X110.822 Y122.467 E-.36574
G1 X111.136 Y123.084 E-.3655
G1 X111.245 Y123.769 E-.36578
G1 X111.136 Y124.453 E-.36578
G1 X111.089 Y124.547 E-.0557
;WIPE_END
G1 E-.12 F2400
G1 Z.275 F5400
G1 X108.577 Y87.301
G1 Z.2
G1 E6 F3000
M204 S800
;TYPE:Perimeter
G1 F600
G1 X108.228 Y87.246 E.00984
G1 X107.505 Y86.877 E.02266
G1 X106.93 Y86.303 E.02268
G1 X106.562 Y85.579 E.02266
G1 X106.435 Y84.777 E.02267
G1 X106.562 Y83.974 E.02267
G1 X106.93 Y83.251 E.02266
G1 X107.506 Y82.675 E.02273
G1 X108.243 Y82.306 E.023
G1 X109.031 Y82.18 E.02227
G1 X109.833 Y82.308 E.02269
G1 X110.557 Y82.676 E.02265
G1 X111.131 Y83.251 E.02268
G1 X111.5 Y83.974 E.02266
G1 X111.627 Y84.777 E.02267
G1 X111.5 Y85.579 E.02267
G1 X111.131 Y86.303 E.02266
G1 X110.557 Y86.877 E.02268
G1 X109.833 Y87.246 E.02266
G1 X109.031 Y87.373 E.02267
G1 X108.636 Y87.31 E.01115
M204 S1000
G1 X109.031 Y86.991 F5400
M204 S800
;TYPE:External perimeter
G1 F600
G1 X108.346 Y86.883 E.01934
G1 X107.729 Y86.568 E.01932
G1 X107.239 Y86.078 E.01934
G1 X106.925 Y85.461 E.01932
G1 X106.816 Y84.777 E.01934
G1 X106.925 Y84.092 E.01934
G1 X107.239 Y83.475 E.01932
G1 X107.729 Y82.984 E.01936
G1 X108.36 Y82.669 E.01967
G1 X109.031 Y82.561 E.01896
G1 X109.715 Y82.671 E.01935
G1 X110.332 Y82.985 E.01932
G1 X110.822 Y83.475 E.01934
G1 X111.136 Y84.092 E.01932
G1 X111.245 Y84.777 E.01934
G1 X111.136 Y85.461 E.01934
G1 X110.822 Y86.078 E.01932
G1 X110.332 Y86.568 E.01934
G1 X109.715 Y86.883 E.01932
G1 X109.09 Y86.982 E.01767
M204 S1000
G1 X108.831 Y87.337 F5400
G1 E-3.6 F2400
;WIPE_START
G1 F4320
G1 X108.346 Y86.883 E-.39602
G1 X107.729 Y86.568 E-.3655
G1 X107.239 Y86.078 E-.36574
G1 X106.925 Y85.461 E-.3655
G1 X106.816 Y84.777 E-.36578
G1 X106.925 Y84.092 E-.36578
G1 X106.973 Y83.998 E-.05569
;WIPE_END
G1 E-.12 F2400
G1 Z.275 F5400
G1 X107.822 Y93.626
G1 Z.2
G1 E6 F3000
M204 S800
;TYPE:Perimeter
G1 F600
G1 X108.032 Y93.746 E.00673
G1 X108.303 Y94.096 E.01236
G1 X108.422 Y94.375 E.00848
G1 X108.513 Y94.66 E.00835
G1 X108.608 Y95.18 E.01474
G1 X108.604 Y98.555 E.09418
G1 X108.527 Y98.879 E.0093
G1 X108.32 Y99.311 E.01336
G1 X108.127 Y99.556 E.0087
G1 X107.924 Y99.742 E.0077
G1 X107.718 Y99.882 E.00694
G1 X90.159 Y110.02 E.5658
G1 X89.81 Y110.149 E.01039
G1 X89.384 Y110.149 E.01189
G1 X88.986 Y110.002 E.01183
G1 X88.662 Y109.731 E.01179
G1 X88.449 Y109.362 E.0119
G1 X88.386 Y108.995 E.01038
G1 X88.386 Y105.189 E.10621
G1 X88.403 Y104.936 E.00709
G1 X88.465 Y104.666 E.00772
G1 X88.565 Y104.412 E.00764
G1 X88.703 Y104.174 E.00766
G1 X88.874 Y103.959 E.00767
G1 X89.076 Y103.773 E.00764
G1 X89.282 Y103.63 E.007
G1 X106.66 Y93.598 E.55994
G1 X106.934 Y93.487 E.00826
G1 X107.564 Y93.479 E.01758
G1 X107.77 Y93.597 E.00663
M204 S1000
G1 X107.466 Y93.857 F5400
M204 S800
;TYPE:External perimeter
G1 F600
G1 X107.78 Y94.036 E.01008
G1 X107.975 Y94.289 E.00891
G1 X108.147 Y94.752 E.01379
G1 X108.231 Y95.214 E.0131
G1 X108.227 Y98.511 E.092
G1 X108.17 Y98.753 E.00694
G1 X107.998 Y99.11 E.01106
G1 X107.85 Y99.298 E.00668
G1 X107.689 Y99.446 E.00609
G1 X107.518 Y99.563 E.00579
G1 X89.999 Y109.678 E.5645
G1 X89.743 Y109.772 E.00761
G1 X89.451 Y109.772 E.00814
G1 X89.178 Y109.671 E.00813
G1 X88.955 Y109.485 E.0081
G1 X88.809 Y109.231 E.00817
G1 X88.763 Y108.963 E.0076
G1 X88.763 Y105.202 E.10494
G1 X88.777 Y104.992 E.0059
G1 X88.826 Y104.778 E.00611
G1 X88.906 Y104.576 E.00606
G1 X89.016 Y104.387 E.0061
G1 X89.151 Y104.216 E.00609
G1 X89.312 Y104.068 E.00609
G1 X89.484 Y103.949 E.00584
G1 X106.826 Y93.938 E.55878
G1 X107.01 Y93.863 E.00555
G1 X107.406 Y93.858 E.01106
M204 S1000
G1 X107.732 Y93.613 F5400
G1 E-3.6 F2400
;WIPE_START
G1 F4320
G1 X107.78 Y94.036 E-.21849
G1 X107.975 Y94.289 E-.16846
G1 X108.147 Y94.752 E-.2608
G1 X108.231 Y95.214 E-.24777
G1 X108.228 Y97.837 E-1.38448
;WIPE_END
G1 E-.12 F2400
G1 Z.275 F5400
G1 X90.972 Y94.984
G1 Z.2
G1 E6 F3000
M204 S800
;TYPE:Perimeter
G1 F600
G1 X92.341 Y96.704 E.06133
G1 X91.937 Y95.391 E.03832
G1 X91.708 Y94.473 E.0264
G1 X101.039 Y89.087 E.30064
G1 X101.265 Y88.978 E.007
G1 X101.539 Y88.893 E.00801
G1 X101.908 Y88.856 E.01035
G1 X102.316 Y88.889 E.01143
G1 X102.63 Y88.984 E.00915
G1 X106.411 Y91.149 E.12159
G1 X106.72 Y91.445 E.01194
G1 X106.883 Y91.893 E.01332
G1 X106.851 Y92.29 E.01112
G1 X106.736 Y92.574 E.00854
G1 X106.49 Y92.866 E.01067
G1 X106.315 Y92.988 E.00594
G1 X88.934 Y103.024 E.56008
G1 X88.705 Y103.133 E.00707
G1 X88.444 Y103.214 E.00763
G1 X88.173 Y103.255 E.00765
G1 X87.896 Y103.255 E.00772
G1 X87.625 Y103.214 E.00765
G1 X87.364 Y103.133 E.00763
G1 X87.136 Y103.024 E.00706
G1 X83.79 Y101.093 E.1078
G1 X83.524 Y100.869 E.00971
G1 X83.39 Y100.674 E.0066
G1 X83.29 Y100.462 E.00654
G1 X83.22 Y100.069 E.01114
G1 X83.295 Y99.651 E.01183
G1 X83.506 Y99.284 E.01183
G1 X83.791 Y99.045 E.01038
G1 X90.926 Y94.926 E.2299
G1 X90.935 Y94.938 E.00043
M204 S1000
G1 X90.833 Y95.415 F5400
M204 S800
;TYPE:External perimeter
G1 F600
G1 X93.063 Y98.215 E.0999
G1 X93.002 Y97.752 E.01303
G1 X92.837 Y97.03 E.02067
G1 X92.3 Y95.29 E.05081
G1 X92.143 Y94.658 E.01819
G1 X101.215 Y89.421 E.29232
G1 X101.403 Y89.33 E.00583
G1 X101.615 Y89.265 E.00617
G1 X101.912 Y89.235 E.00834
G1 X102.246 Y89.261 E.00934
G1 X102.48 Y89.332 E.00682
G1 X106.184 Y91.454 E.11911
G1 X106.396 Y91.656 E.00819
G1 X106.501 Y91.945 E.00856
G1 X106.48 Y92.203 E.00722
G1 X106.409 Y92.377 E.00525
G1 X106.234 Y92.585 E.00761
G1 X106.113 Y92.67 E.00411
G1 X88.758 Y102.69 E.55923
G1 X88.568 Y102.781 E.00589
G1 X88.36 Y102.845 E.00607
G1 X88.145 Y102.878 E.00607
G1 X87.925 Y102.878 E.00613
G1 X87.71 Y102.845 E.00607
G1 X87.502 Y102.781 E.00607
G1 X87.312 Y102.69 E.00588
G1 X84.007 Y100.783 E.10647
G1 X83.806 Y100.613 E.00737
G1 X83.718 Y100.485 E.00432
G1 X83.653 Y100.347 E.00428
G1 X83.603 Y100.069 E.00788
G1 X83.654 Y99.782 E.00813
G1 X83.799 Y99.53 E.00812
G1 X84.008 Y99.355 E.00759
G1 X90.781 Y95.445 E.21825
M204 S1000
G1 X91.157 Y95.181 F5400
G1 E-3.6 F2400
;WIPE_START
G1 F4320
G1 X93.063 Y98.215 E-1.8944
G1 X93.002 Y97.752 E-.24645
G1 X92.943 Y97.495 E-.13915
;WIPE_END
G1 E-.12 F2400
G1 Z.275 F5400
