; generated by PrusaSlicer 2.4.0+win64 on 2022-04-19 at 23:19:37 UTC


;
;

;
;
; 

; external perimeters extrusion width = 0.45mm
; perimeters extrusion width = 0.45mm
; infill extrusion width = 0.45mm
; solid infill extrusion width = 0.45mm
; top infill extrusion width = 0.40mm
; support material extrusion width = 0.35mm
; first layer extrusion width = 0.42mm

; external perimeters extrusion width = 0.45mm
; perimeters extrusion width = 0.45mm
; infill extrusion width = 0.45mm
; solid infill extrusion width = 0.45mm
; top infill extrusion width = 0.40mm
; support material extrusion width = 0.35mm
; first layer extrusion width = 0.42mm

M73 P0 R51
M201 X3000 Y2000 Z60 E10000 ; sets maximum accelerations, mm/sec^2
M203 X500 Y500 Z6 E60 ; sets maximum feedrates, mm/sec
M204 P1250 R1250 T1250 ; sets acceleration (P, T) and retract acceleration (R), mm/sec^2
M205 X10.00 Y10.00 Z0.40 E5.00 ; sets the jerk limits, mm/sec
M205 S0 T0 ; sets the minimum extruding and travel feed rate, mm/sec
M107
;TYPE:Custom
G90 ; use absolute coordinates
M83 ; extruder relative mode
M204 S1250 T1250
M104 S215 ; set extruder temp
M140 S65 ; set bed temp
G28 ; home all
G1 Y1.0 Z0.3 F1000 ; move print head up
M190 S65 ; wait for bed temp
M109 S215 ; wait for extruder temp
G92 E0.0
; initial load
G1 X205.0 E19 F1000
G1 Y1.6
G1 X5.0 E19 F1000
G92 E0.0
; intro line
G1 Y2.0 Z0.2 F1000
G1 X65.0 E9.0 F1000
G1 X105.0 E12.5 F1000
G92 E0.0
G21 ; set units to millimeters
G90 ; use absolute coordinates
M83 ; use relative distances for extrusion
; Filament gcode
M107
;LAYER_CHANGE
;Z:0.2
;HEIGHT:0.2
;BEFORE_LAYER_CHANGE
G92 E0.0
;0.2
G1 E-6 F2400
G1 Z.075 F5400
G1 Z.2
;AFTER_LAYER_CHANGE
;0.2
G1 Z.275
G1 X92.105 Y70.847
G1 Z.2
M73 P1 R51
G1 E6 F3000
M204 S800
;TYPE:Skirt/Brim
;WIDTH:0.42
G1 F600
G1 X97.814 Y63.425 E.26131
G1 X98.629 Y62.527 E.03384
G1 X99.532 Y61.709 E.034
G1 X101.343 Y60.476 E.06114
G1 X102.432 Y59.937 E.0339
G1 X103.79 Y59.438 E.04037
G1 X104.97 Y59.143 E.03395
G1 X106.248 Y58.962 E.03601
G1 X107.532 Y58.913 E.03588
G1 X108.803 Y58.997 E.03554
G1 X110.154 Y59.233 E.03827
G1 X111.901 Y59.765 E.05095
G1 X113.214 Y60.372 E.04037
G1 X114.258 Y60.998 E.03398
G1 X115.964 Y62.373 E.06113
G1 X116.797 Y63.261 E.03398
G1 X117.668 Y64.414 E.04031
G1 X118.291 Y65.455 E.03388
G1 X118.773 Y66.459 E.03105
G1 X129.76 Y92.747 E.79508
G1 X130.433 Y95.427 E.07711
G1 X132.727 Y113.409 E.50587
G1 X132.783 Y114.593 E.03307
G1 X132.724 Y115.805 E.03388
G1 X132.499 Y117.236 E.04041
G1 X131.845 Y119.326 E.06112
G1 X131.325 Y120.427 E.03398
G1 X130.571 Y121.66 E.04034
G1 X129.166 Y123.344 E.06118
G1 X128.085 Y124.306 E.0404
G1 X126.248 Y125.511 E.0613
G1 X124.935 Y126.118 E.04037
G1 X122.84 Y126.734 E.06091
G1 X121.69 Y126.9 E.03243
G1 X120.182 Y126.973 E.04212
G1 X118.004 Y126.74 E.06115
G1 X116.613 Y126.38 E.04009
G1 X72.695 Y110.492 E1.30327
G1 X71.924 Y110.033 E.02503
G1 X70.561 Y108.818 E.05096
G1 X69.926 Y107.902 E.03108
G1 X68.752 Y104.87 E.09075
G1 X68.728 Y103.218 E.0461
G1 X69.901 Y99.905 E.09808
G1 X70.258 Y99.249 E.02082
G1 X92.068 Y70.895 E.99824
M204 S1000
; printing object xTool_Nozzle_v7.7_16mm.stl id:1 copy 0
G1 E-3.6 F2400
;WIPE_START
G1 F4320
G1 X94.702 Y67.471 E-2.28
;WIPE_END
G1 E-.12 F2400
G1 Z.275 F5400
G1 X116.974 Y91.502
G1 Z.2
G1 E6 F3000
M204 S800
;TYPE:Support material
G1 F600
G1 X117.267 Y92.05 E.01735
G1 X117.485 Y92.327 E.00984
G1 X117.485 Y101.772 E.26354
G1 X116.702 Y101.386 E.02435
G1 X116.495 Y101.339 E.00593
G1 X115.927 Y101.101 E.01718
G1 X115.295 Y100.701 E.02087
G1 X114.486 Y99.666 E.03666
G1 X114.146 Y98.387 E.03692
G1 X113.865 Y96.811 E.04468
G1 X113.995 Y96.616 E.00654
G1 X113.866 Y95.892 E.0205
G1 X113.995 Y95.697 E.00655
G1 X113.868 Y94.978 E.02038
G1 X113.996 Y94.781 E.00656
G1 X113.967 Y94.617 E.00466
G1 X114.131 Y93.848 E.02195
G1 X114.237 Y93.21 E.01805
G1 X115.551 Y91.501 E.06014
M73 P1 R50
G1 X116.917 Y91.502 E.03813
M204 S1000
G1 X117.056 Y101.371 F5400
M204 S800
G1 F600
G1 X117.056 Y92.34 E.25203
G1 X116.976 Y92.225 E.00392
G1 X116.771 Y91.841 E.01214
G1 X116.637 Y91.841 E.00372
G1 X116.637 Y101.023 E.25624
G1 X116.218 Y100.854 E.01261
G1 X116.218 Y91.841 E.25152
G1 X115.799 Y91.841 E.01169
G1 X115.799 Y100.618 E.24494
G1 X115.526 Y100.445 E.00902
G1 X115.38 Y100.259 E.00661
G1 X115.38 Y92.28 E.22266
G1 X114.961 Y92.824 E.01917
G1 X114.961 Y99.723 E.19251
G1 X114.796 Y99.512 E.00749
G1 X114.542 Y98.556 E.02759
G1 X114.542 Y93.091 E.15251
M204 S1000
G1 E-3.6 F2400
;WIPE_START
G1 F4320
G1 X114.542 Y97.411 E-2.28
;WIPE_END
G1 E-.12 F2400
M73 P2 R50
G1 Z.275 F5400
G1 X120.478 Y88.767
G1 Z.2
G1 E6 F3000
M204 S800
G1 F600
G1 X120.663 Y88.786 E.0052
G1 X120.893 Y88.855 E.0067
G1 X121.105 Y88.968 E.00669
G1 X121.289 Y89.12 E.00666
G1 X121.442 Y89.307 E.00675
G1 X121.556 Y89.518 E.00669
G1 X121.625 Y89.747 E.00668
G1 X121.648 Y89.985 E.00669
G1 X121.625 Y90.224 E.0067
G1 X121.556 Y90.454 E.00669
G1 X121.442 Y90.665 E.00669
G1 X121.29 Y90.851 E.00672
G1 X121.103 Y91.005 E.00675
G1 X120.893 Y91.117 E.00663
G1 X120.663 Y91.186 E.0067
G1 X120.425 Y91.21 E.00669
G1 X120.187 Y91.186 E.00665
G1 X119.956 Y91.117 E.00675
G1 X119.745 Y91.004 E.00666
G1 X119.56 Y90.852 E.00669
G1 X119.407 Y90.665 E.00674
G1 X119.294 Y90.455 E.00666
G1 X119.225 Y90.224 E.00671
G1 X119.201 Y89.985 E.0067
G1 X119.225 Y89.747 E.00669
G1 X119.294 Y89.517 E.0067
G1 X119.408 Y89.305 E.00671
G1 X119.559 Y89.12 E.00666
G1 X119.745 Y88.968 E.00672
G1 X119.956 Y88.855 E.00667
G1 X120.186 Y88.786 E.0067
G1 X120.422 Y88.762 E.00661
M204 S1000
G1 X121.246 Y90.637 F5400
M204 S800
G1 F600
G1 X121.246 Y89.667 E.02708
G1 X121.159 Y89.496 E.00534
G1 X121.048 Y89.36 E.0049
G1 X120.915 Y89.251 E.00478
G1 X120.827 Y89.204 E.00279
G1 X120.827 Y90.767 E.04362
G1 X120.597 Y90.852 E.00684
G1 X120.425 Y90.869 E.00483
G1 X120.408 Y90.867 E.00046
G1 X120.408 Y89.104 E.04919
G1 X120.252 Y89.12 E.00437
G1 X120.086 Y89.17 E.00484
G1 X119.989 Y89.222 E.00308
G1 X119.989 Y90.75 E.04263
G1 X119.801 Y90.611 E.00652
G1 X119.69 Y90.475 E.00489
G1 X119.609 Y90.324 E.00479
G1 X119.57 Y90.194 E.00379
G1 X119.57 Y89.374 E.02288
M204 S1000
G1 E-3.6 F2400
;WIPE_START
G1 F4320
G1 X119.57 Y90.194 E-.43277
G1 X119.609 Y90.324 E-.07175
G1 X119.69 Y90.475 E-.09052
G1 X119.801 Y90.611 E-.09239
G1 X119.989 Y90.75 E-.12327
G1 X119.989 Y89.222 E-.8063
G1 X120.086 Y89.17 E-.05816
G1 X120.252 Y89.12 E-.09152
G1 X120.408 Y89.104 E-.08261
G1 X120.408 Y89.92 E-.4307
;WIPE_END
G1 E-.12 F2400
G1 Z.275 F5400
G1 X125.281 Y91.521
G1 Z.2
G1 E6 F3000
M204 S800
G1 F600
G1 X126.579 Y93.21 E.05945
G1 X126.655 Y93.663 E.01282
G1 X127.567 Y93.663 E.02547
G1 X128.121 Y95.979 E.06645
G1 X128.18 Y96.559 E.01625
G1 X128.227 Y96.824 E.00751
G1 X128.204 Y97.18 E.00996
G1 X128.259 Y98.037 E.02398
G1 X128.18 Y98.248 E.00628
G1 X128.196 Y98.295 E.00138
G1 X128.117 Y99.546 E.03499
G1 X128.18 Y99.877 E.00942
G1 X128.214 Y100.348 E.01317
G1 X128.177 Y101.042 E.01939
G1 X128.22 Y101.155 E.00337
G1 X128.194 Y101.649 E.01382
G1 X128.251 Y101.869 E.00633
G1 X128.2 Y102.226 E.01006
G1 X128.227 Y102.643 E.01164
G1 X128.197 Y102.942 E.0084
G1 X128.185 Y103.404 E.01289
G1 X128.209 Y103.575 E.00481
G1 X128.181 Y104.111 E.01501
G1 X128.26 Y105.348 E.03458
G1 X128.044 Y105.957 E.01804
G1 X127.843 Y106.82 E.02471
G1 X127.3 Y106.322 E.02057
G1 X126.487 Y105.707 E.02845
G1 X125.585 Y105.153 E.02953
G1 X124.6 Y104.677 E.03053
G1 X123.643 Y104.325 E.02845
G1 X123.33 Y104.242 E.00905
G1 X123.33 Y92.369 E.33131
G1 X123.581 Y92.051 E.01132
G1 X123.876 Y91.501 E.01741
G1 X125.224 Y91.521 E.03761
M204 S1000
G1 X127.531 Y106.3 F5400
M204 S800
G1 F600
G1 X127.531 Y94.971 E.31616
G1 X127.299 Y94.003 E.02777
G1 X127.112 Y94.003 E.00524
G1 X127.112 Y105.753 E.3279
G1 X126.693 Y105.437 E.01466
G1 X126.693 Y94.003 E.31906
G1 X126.367 Y94.003 E.00909
G1 X126.274 Y93.441 E.01589
G1 X126.274 Y105.176 E.32747
G1 X125.855 Y104.92 E.0137
G1 X125.855 Y92.824 E.33754
G1 X125.436 Y92.28 E.01918
G1 X125.436 Y104.702 E.34665
G1 X125.017 Y104.499 E.01299
G1 X125.017 Y91.857 E.35279
G1 X124.598 Y91.851 E.01169
G1 X124.598 Y104.314 E.3478
G1 X124.179 Y104.16 E.01246
G1 X124.179 Y91.845 E.34366
G1 X124.078 Y91.843 E.00282
G1 X123.873 Y92.226 E.01211
G1 X123.76 Y92.38 E.00533
G1 X123.76 Y104.187 E.32948
M204 S1000
G1 E-3.6 F2400
;WIPE_START
G1 F4320
G1 X123.76 Y99.867 E-2.28
;WIPE_END
G1 E-.12 F2400
G1 Z.275 F5400
G1 X122.924 Y106.523
G1 Z.2
G1 E6 F3000
M204 S800
;TYPE:External perimeter
G1 F600
G1 X123.647 Y106.782 E.02143
G1 X124.398 Y107.137 E.02317
G1 X125.109 Y107.565 E.02317
G1 X125.777 Y108.059 E.02318
G1 X126.392 Y108.617 E.02318
G1 X126.95 Y109.232 E.02318
G1 X127.444 Y109.9 E.02318
G1 X127.872 Y110.611 E.02317
G1 X128.227 Y111.362 E.02317
G1 X128.507 Y112.144 E.02319
G1 X128.708 Y112.95 E.02318
G1 X128.83 Y113.772 E.02317
G1 X128.871 Y114.601 E.02318
G1 X128.83 Y115.43 E.02315
G1 X128.708 Y116.251 E.02317
G1 X128.507 Y117.057 E.02318
G1 X128.227 Y117.84 E.02319
G1 X127.872 Y118.591 E.02317
G1 X127.444 Y119.302 E.02317
G1 X126.95 Y119.97 E.02318
G1 X126.392 Y120.585 E.02318
G1 X125.777 Y121.143 E.02318
G1 X125.109 Y121.637 E.02318
G1 X124.398 Y122.065 E.02317
G1 X123.647 Y122.42 E.02317
G1 X122.864 Y122.7 E.02319
G1 X122.059 Y122.901 E.02318
G1 X121.237 Y123.023 E.02317
G1 X120.409 Y123.064 E.02315
G1 X119.579 Y123.023 E.02318
G1 X118.758 Y122.901 E.02317
G1 X117.952 Y122.7 E.02318
G1 X117.169 Y122.42 E.02319
G1 X116.418 Y122.065 E.02317
G1 X115.707 Y121.637 E.02317
G1 X115.039 Y121.143 E.02318
G1 X114.424 Y120.585 E.02318
G1 X113.866 Y119.97 E.02318
G1 X113.372 Y119.302 E.02318
G1 X112.944 Y118.591 E.02317
G1 X112.589 Y117.84 E.02317
G1 X112.309 Y117.057 E.02319
G1 X112.108 Y116.251 E.02318
G1 X111.986 Y115.43 E.02317
G1 X111.945 Y114.601 E.02315
G1 X111.986 Y113.772 E.02318
G1 X112.108 Y112.95 E.02317
G1 X112.309 Y112.144 E.02318
G1 X112.589 Y111.362 E.02319
G1 X112.944 Y110.611 E.02317
G1 X113.372 Y109.9 E.02317
G1 X113.866 Y109.232 E.02318
G1 X114.424 Y108.617 E.02318
G1 X115.039 Y108.059 E.02318
G1 X115.707 Y107.565 E.02318
G1 X116.418 Y107.137 E.02317
G1 X117.169 Y106.782 E.02317
G1 X117.952 Y106.502 E.02319
G1 X118.758 Y106.301 E.02318
G1 X119.579 Y106.179 E.02317
G1 X120.409 Y106.138 E.02318
G1 X121.237 Y106.179 E.02315
G1 X122.059 Y106.301 E.02317
G1 X122.867 Y106.503 E.02327
M204 S1000
G1 X123.216 Y106.25 F5400
G1 E-3.6 F2400
;WIPE_START
G1 F4320
G1 X123.647 Y106.782 E-.437
G1 X124.398 Y107.137 E-.43827
G1 X125.109 Y107.565 E-.43817
G1 X125.777 Y108.059 E-.43836
G1 X126.392 Y108.617 E-.43837
G1 X126.507 Y108.743 E-.08984
;WIPE_END
G1 E-.12 F2400
G1 Z.275 F5400
G1 X121.347 Y92.4
G1 Z.2
G1 E6 F3000
M204 S800
;TYPE:Perimeter
G1 F600
G1 X121.864 Y92.14 E.01613
G1 X121.97 Y92.052 E.00386
G1 X121.97 Y105.294 E.36953
G1 X123.219 Y105.617 E.03599
G1 X124.086 Y105.936 E.02577
G1 X124.917 Y106.338 E.02577
G1 X125.706 Y106.82 E.02579
G1 X126.443 Y107.377 E.02578
G1 X127.121 Y108.003 E.02577
G1 X127.736 Y108.693 E.02578
G1 X128.279 Y109.44 E.02576
G1 X128.748 Y110.236 E.02578
G1 X129.135 Y111.074 E.02577
G1 X129.439 Y111.947 E.02579
G1 X129.655 Y112.845 E.02577
G1 X129.783 Y113.76 E.02578
G1 X129.82 Y114.682 E.02575
G1 X129.766 Y115.605 E.02579
G1 X129.623 Y116.518 E.02579
G1 X129.391 Y117.411 E.02576
G1 X129.072 Y118.278 E.02577
G1 X128.67 Y119.11 E.02579
G1 X128.188 Y119.898 E.02578
G1 X127.631 Y120.635 E.02577
G1 X127.006 Y121.314 E.02577
G1 X126.316 Y121.928 E.02576
G1 X125.569 Y122.472 E.02577
G1 X124.772 Y122.94 E.02579
G1 X123.934 Y123.327 E.02576
G1 X123.814 Y123.369 E.00357
G1 X121.47 Y123.369 E.06541
G1 X122.132 Y123.271 E.01869
G1 X122.974 Y123.061 E.02421
G1 X123.791 Y122.768 E.02423
G1 X124.576 Y122.398 E.02421
G1 X125.319 Y121.951 E.0242
G1 X126.016 Y121.435 E.02421
G1 X126.659 Y120.852 E.02422
G1 X127.242 Y120.209 E.02422
G1 X127.758 Y119.512 E.02421
G1 X128.205 Y118.769 E.0242
G1 X128.576 Y117.984 E.02421
G1 X128.868 Y117.167 E.02423
M73 P3 R50
G1 X129.078 Y116.325 E.02421
G1 X129.206 Y115.467 E.0242
G1 X129.248 Y114.601 E.02419
G1 X129.206 Y113.735 E.02422
G1 X129.078 Y112.877 E.0242
G1 X128.868 Y112.035 E.02421
G1 X128.576 Y111.217 E.02423
G1 X128.205 Y110.433 E.02421
G1 X127.758 Y109.69 E.0242
G1 X127.242 Y108.993 E.02421
G1 X126.659 Y108.35 E.02421
G1 X126.016 Y107.767 E.02422
G1 X125.319 Y107.251 E.02421
G1 X124.576 Y106.804 E.0242
G1 X123.791 Y106.433 E.02421
G1 X122.974 Y106.141 E.02423
G1 X122.132 Y105.931 E.02421
G1 X121.274 Y105.803 E.0242
G1 X120.409 Y105.761 E.02419
G1 X119.542 Y105.803 E.02422
G1 X118.684 Y105.931 E.0242
G1 X117.842 Y106.141 E.02421
G1 X117.025 Y106.433 E.02423
G1 X116.24 Y106.804 E.02421
G1 X115.497 Y107.251 E.0242
G1 X114.8 Y107.767 E.02421
G1 X114.157 Y108.35 E.02421
G1 X113.574 Y108.993 E.02422
G1 X113.058 Y109.69 E.02421
G1 X112.611 Y110.433 E.0242
G1 X112.241 Y111.217 E.02421
G1 X111.948 Y112.035 E.02423
G1 X111.738 Y112.877 E.02421
G1 X111.611 Y113.735 E.0242
G1 X111.568 Y114.601 E.02422
G1 X111.611 Y115.467 E.02419
G1 X111.738 Y116.325 E.0242
G1 X111.948 Y117.167 E.02421
G1 X112.241 Y117.984 E.02423
G1 X112.611 Y118.769 E.02421
G1 X113.058 Y119.512 E.0242
G1 X113.574 Y120.209 E.02421
G1 X114.157 Y120.852 E.02422
G1 X114.8 Y121.435 E.02421
G1 X115.497 Y121.951 E.02421
G1 X116.24 Y122.398 E.0242
G1 X117.025 Y122.768 E.02421
G1 X117.842 Y123.061 E.02423
G1 X118.684 Y123.271 E.02421
G1 X119.347 Y123.369 E.01869
G1 X117.988 Y123.369 E.0379
G1 X117.988 Y123.685 E.00881
G1 X117.597 Y123.583 E.01128
G1 X116.73 Y123.264 E.02578
G1 X115.899 Y122.862 E.02576
G1 X115.111 Y122.38 E.02578
G1 X114.373 Y121.824 E.02578
G1 X113.695 Y121.197 E.02577
G1 X113.08 Y120.507 E.02579
G1 X112.537 Y119.761 E.02576
G1 X112.069 Y118.965 E.02577
G1 X111.681 Y118.126 E.02579
G1 X111.377 Y117.254 E.02578
G1 X111.161 Y116.356 E.02577
G1 X111.034 Y115.441 E.02578
G1 X110.996 Y114.518 E.02576
G1 X111.05 Y113.596 E.02578
G1 X111.193 Y112.684 E.02576
G1 X111.425 Y111.79 E.02578
G1 X111.745 Y110.923 E.02578
G1 X112.147 Y110.091 E.02579
G1 X112.628 Y109.303 E.02577
G1 X113.185 Y108.566 E.02577
G1 X113.811 Y107.888 E.02576
G1 X114.5 Y107.273 E.02578
G1 X115.248 Y106.729 E.02579
G1 X116.044 Y106.261 E.02577
G1 X116.883 Y105.873 E.02578
G1 X117.754 Y105.57 E.02575
G1 X118.812 Y105.315 E.03035
G1 X118.812 Y104.839 E.01328
G1 X118.845 Y104.839 E.00092
G1 X118.845 Y92.731 E.33788
G1 X119.574 Y92.731 E.02036
G1 X119.17 Y92.238 E.01779
G1 X119.434 Y92.38 E.00836
G1 X119.92 Y92.526 E.01415
G1 X120.425 Y92.576 E.01416
G1 X120.93 Y92.526 E.01416
G1 X121.29 Y92.417 E.01051
M204 S1000
G1 X120.856 Y92.154 F5400
M204 S800
;TYPE:External perimeter
G1 F600
G1 X120.425 Y92.197 E.01209
G1 X119.993 Y92.154 E.01209
G1 X119.579 Y92.029 E.01208
G1 X119.196 Y91.825 E.01211
G1 X118.861 Y91.549 E.0121
G1 X118.586 Y91.214 E.01211
G1 X118.382 Y90.832 E.01208
G1 X118.257 Y90.416 E.01211
G1 X118.214 Y89.985 E.01209
G1 X118.257 Y89.555 E.01208
G1 X118.382 Y89.14 E.01209
G1 X118.586 Y88.758 E.01208
G1 X118.861 Y88.422 E.01211
G1 X119.196 Y88.147 E.0121
G1 X119.579 Y87.942 E.01211
G1 X119.993 Y87.817 E.01208
G1 X120.425 Y87.774 E.01209
G1 X120.856 Y87.817 E.01209
G1 X121.27 Y87.942 E.01208
G1 X121.653 Y88.147 E.01211
G1 X121.988 Y88.422 E.0121
G1 X122.263 Y88.758 E.01211
G1 X122.467 Y89.139 E.01207
G1 X122.594 Y89.555 E.01211
G1 X122.636 Y89.985 E.01208
G1 X122.594 Y90.416 E.01209
G1 X122.467 Y90.832 E.01213
G1 X122.263 Y91.214 E.01208
G1 X121.988 Y91.549 E.01212
G1 X121.653 Y91.825 E.0121
G1 X121.27 Y92.029 E.01211
G1 X120.913 Y92.137 E.01041
M204 S1000
G1 X120.727 Y92.533 F5400
G1 E-3.6 F2400
;WIPE_START
G1 F4320
G1 X120.425 Y92.197 E-.25982
G1 X119.993 Y92.154 E-.22867
G1 X119.579 Y92.029 E-.22846
G1 X119.196 Y91.825 E-.22905
G1 X118.861 Y91.549 E-.22886
G1 X118.586 Y91.214 E-.22911
G1 X118.382 Y90.832 E-.22854
G1 X118.257 Y90.416 E-.22903
G1 X118.214 Y89.985 E-.22863
G1 X118.249 Y89.627 E-.18981
;WIPE_END
G1 E-.12 F2400
G1 Z.275 F5400
G1 X120.144 Y123.428
G1 Z.2
G1 E6 F3000
M204 S800
;TYPE:Perimeter
G1 F600
G1 X120.144 Y124.002 E.01602
G1 X120.007 Y123.994 E.00384
G1 X120.007 Y123.421 E.01598
G1 X120.084 Y123.425 E.00217
M204 S1000
